X:23
T:The Harriott
Z:Jack Campin  *  May 2000  *  http://www.campin.me.uk/
M:2/4
L:1/8
C:Preston
K:D
ff de/f/|gg    e2      |cc AB/c/|d/c/d/e/ f/g/a/g/|\
ff de/f/|gg    e2      |cc AB/c/|d2       D2     :|
aa fd   |BB/c/ d/c/d/B/|Aa fd   |e/d/e/f/ e2      |\
aa fd   |BB/c/ d/c/d/B/|Aa fd   |e/d/e/f/ d2     :| 

